!!!!SEGMENT: pl-kk--kk-i-14--011_gorczycki-grzegorz-gerwazy--laetare-jerusalem.krn
!!!id: 17xx:2199
!!!COM: Gorczycki, Grzegorz Gerwazy
!!!COM-rism: pe30009207
!!!CDT: ~1666-1734/04/30
!!!CNT: Polish
!!!OTL: Laetare Jerusalem
!!!PDT:
!!!SMS-siglum: PL-Kk
!!!SMS-shelfmark: Kk.I.14
!!!NIFC-rismID: 1001154405
!!!URL-scan: http://repozytorium.nifc.pl/skany/pl-kk-nut--i-14
!!!ONB-nifc: UWAGA: T (skan 0007-0008), B (0020). Następny utwór: Sancte Deus
!!!SMS-variant:
!!!SMS-altvar:
**kern	**text	**kern	**kern	**kern	**text
*part4	*part4	*part3	*part2	*part1	*part1
*staff4	*staff4	*staff3	*staff2	*staff1	*staff1
*I"Baſſo.	*	*I"[Tenore]	*I"[Alto]	*I"[Soprano]	*
*I'B	*	*I'[T]	*I'[A]	*I'[S]	*
*clefF4	*	*clefC4	*clefC3	*clefC1	*
*k[]	*	*k[]	*k[]	*k[]	*
*M3/2	*	*M3/2	*M3/2	*M3/2	*
=1-	=1-	=1-	=1-	=1-	=1-
!	!	!LO:TX:t=P:problem:brak partii, źródło niekompletne	!LO:TX:t=P:problem:brak partii, źródło niekompletne	!	!
00.r	.	1.ryy	1.ryy	2r	.
.	.	.	.	2r	.
!	!	!	!	!LO:TX:t=P:problem:kreska pseudotaktowa	!
.	.	.	.	2g/	Lae-
=2-	=2-	=2-	=2-	=2-	=2-
.	.	1.ryy	1.ryy	2b\	-ta-
.	.	.	.	2g/	-re
.	.	.	.	2b\	lae-
=3-	=3-	=3-	=3-	=3-	=3-
.	.	1.ryy	1.ryy	2dd\	-ta-
.	.	.	.	2dd\	-re
.	.	.	.	2dd\	lae-
=4-	=4-	=4-	=4-	=4-	=4-
.	.	1.ryy	1.ryy	4dd\	-ta-
.	.	.	.	4cc\	.
.	.	.	.	4dd\	.
.	.	.	.	4ee\	.
.	.	.	.	4dd\	.
.	.	.	.	4cc\	.
=5-	=5-	=5-	=5-	=5-	=5-
!LO:TX:t=P:problem:kreska pseudotaktowa	!	!	!	!	!
0.r	.	1.ryy	1.ryy	4b\	.
.	.	.	.	4a\	.
.	.	.	.	4b\	.
.	.	.	.	4cc\	.
.	.	.	.	4b\	.
.	.	.	.	4a\	.
=6-	=6-	=6-	=6-	=6-	=6-
.	.	1.ryy	1.ryy	2g/	.
*	*	*	*	*	*ij
.	.	.	.	2g/	-re
.	.	.	.	2d/	lae-
!	!	!	!	!LO:LB:g=original	!
=7-	=7-	=7-	=7-	=7-	=7-
2r	.	1.ryy	1.ryy	2a\	-ta-
2r	.	.	.	2a\	-re
!LO:TX:t=P:problem:kreska pseudotaktowa	!	!	!	!LO:TX:t=P:problem:kreska pseudotaktowa	!
2D/	Lae-	.	.	2a\	lae-
=8-	=8-	=8-	=8-	=8-	=8-
2F#X\	-ta-	1.ryy	1.ryy	2a\	-ta-
2D\	-re	.	.	2f#X/	-re
!LO:TX:t=P:problem:kreska pseudotaktowa	!	!	!	!	!
2F#X\	lae-	.	.	2f#/	lae-
=9-	=9-	=9-	=9-	=9-	=9-
2G\	-ta-	1.ryy	1.ryy	2d/	-ta-
2G\	-re	.	.	2d/	-re
!LO:TX:t=P:problem:kreska pseudotaktowa	!	!	!	!	!
2G\	lae-	.	.	2dd\	lae-
=10-	=10-	=10-	=10-	=10-	=10-
4G\	-ta-	1.ryy	1.ryy	2dd\	-ta-
4F\ny	.	.	.	.	.
4G\	.	.	.	2b\	-re
4A\	.	.	.	.	.
4G\	.	.	.	2b\	lae-
!LO:TX:t=P:problem:kreska pseudotaktowa	!	!	!	!	!
4F\	.	.	.	.	.
=11-	=11-	=11-	=11-	=11-	=11-
4E\	.	1.ryy	1.ryy	2g/	-ta-
4D\	.	.	.	.	.
4E\	.	.	.	2g/	-re
4F\	.	.	.	.	.
4E\	.	.	.	2g/	lae-
!LO:TX:t=P:problem:kreska pseudotaktowa	!	!	!	!	!
4D\	.	.	.	.	.
!LO:PB:g=original	!	!	!	!	!
=12-	=12-	=12-	=12-	=12-	=12-
2C/	.	1.ryy	1.ryy	2cc\	-ta-
2C/	-re	.	.	2cc\	-re
*	*ij	*	*	*	*
!LO:TX:t=P:problem:kreska pseudotaktowa	!	!	!	!	!
2c\	lae-	.	.	2ee\	lae-
=13-	=13-	=13-	=13-	=13-	=13-
2c\	-ta-	1.ryy	1.ryy	2gg\	-ta-
2C/	-re	.	.	2ee\	-re
*	*	*	*	*	*Xij
!LO:TX:t=P:problem:kreska pseudotaktowa	!	!	!	!	!
2GG/	lae-	.	.	2gg\	lae-
=14-	=14-	=14-	=14-	=14-	=14-
2C/	-ta-	1.ryy	1.ryy	4gg\	-ta-
.	.	.	.	4ff\	.
2C,</	-re	.	.	4gg\	.
.	.	.	.	4aa\	.
2c\	lae-	.	.	4gg\	.
.	.	.	.	4ff\	.
!	!	!	!	!LO:LB:g=original	!
=15-	=15-	=15-	=15-	=15-	=15-
4c\	-ta-	1.ryy	1.ryy	4ee\	.
!LO:TX:a:t=P:problem:♮ above	!	!	!	!	!
4Bn\	.	.	.	4dd\	.
4c\	.	.	.	4ee\	.
4d\	.	.	.	4ff\	.
4c\	.	.	.	4ee\	.
!LO:TX:t=P:problem:kreska pseudotaktowa	!	!	!	!	!
4B\	.	.	.	4dd\	.
=16-	=16-	=16-	=16-	=16-	=16-
4A\	.	1.ryy	1.ryy	2cc\	.
4G\	.	.	.	.	.
4A\	.	.	.	2cc\	-re
4B-X\	.	.	.	.	.
4A\	.	.	.	2cc\	lae-
!LO:TX:t=P:problem:kreska pseudotaktowa	!	!	!	!	!
4G\	.	.	.	.	.
=17-	=17-	=17-	=17-	=17-	=17-
2F\	.	1.ryy	1.ryy	4cc\	-ta-
!	!	!	!	!LO:TX:a:t=P:problem:♭ above	!
.	.	.	.	4b-X\	.
2F\	-re	.	.	4cc\	.
.	.	.	.	4dd\	.
!LO:TX:t=P:problem:kreska pseudotaktowa	!	!	!	!	!
2F\	lae-	.	.	4cc\	.
!	!	!	!	!LO:TX:a:t=P:problem:♭ above	!
.	.	.	.	4b-X\	.
=18-	=18-	=18-	=18-	=18-	=18-
2F\	-ta-	1.ryy	1.ryy	2a\	.
2F\	-re	.	.	2a\	-re
!LO:TX:t=P:problem:kreska pseudotaktowa	!	!	!	!	!
2C/	lae-	.	.	2g/	lae-
=19-	=19-	=19-	=19-	=19-	=19-
2F\	-ta-	1.ryy	1.ryy	2a\	-ta-
2F\	-re	.	.	2a\	-re
*	*Xij	*	*	*	*
2C/	Je-	.	.	2g/	Je-
!LO:LB:g=original	!	!	!	!	!
=20-	=20-	=20-	=20-	=20-	=20-
1G	-ru-	1.ryy	1.ryy	1g	-ru-
!LO:TX:t=P:problem:kreska pseudotaktowa	!	!	!	!	!
2G\	-ſa-	.	.	2g/	-ſa-
=21-	=21-	=21-	=21-	=21-	=21-
2C/	-le(m)	1.ryy	1.ryy	1.g	-lem
2r	.	.	.	.	.
!LO:TX:t=P:problem:kreska pseudotaktowa	!	!	!	!	!
2r	.	.	.	.	.
=22-	=22-	=22-	=22-	=22-	=22-
2r	.	1.ryy	1.ryy	2r	.
2C/	Et	.	.	2g/	Et
!LO:TX:t=P:problem:kreska pseudotaktowa	!	!	!	!	!
2C/	con-	.	.	2g/	con-
=23-	=23-	=23-	=23-	=23-	=23-
1F	-ven-	1.ryy	1.ryy	1a	-ven-
!LO:TX:t=P:problem:kreska pseudotaktowa	!	!	!	!	!
2F\	-tu(m)	.	.	2a\	-tu(m)
!	!	!	!	!LO:LB:g=original	!
=24-	=24-	=24-	=24-	=24-	=24-
2.D/	fa-	1.ryy	1.ryy	2.a\	fa-
4D\	-ci-	.	.	4a\	-ci-
!LO:TX:t=P:problem:kreska pseudotaktowa	!	!	!	!	!
2D\	-te	.	.	2a\	-te
=25-	=25-	=25-	=25-	=25-	=25-
1G	o(m)-	1.ryy	1.ryy	1bny	o(m)-
!LO:TX:t=P:problem:kreska pseudotaktowa	!	!	!	!	!
2G\	-(n)es	.	.	2b\	-(n)es
=26-	=26-	=26-	=26-	=26-	=26-
1E	qui	1.ryy	1.ryy	1b	qui
!LO:TX:t=P:problem:kreska pseudotaktowa	!	!	!	!	!
2E\	di-	.	.	2b\	di-
=27-	=27-	=27-	=27-	=27-	=27-
2.A\	-li-	1.ryy	1.ryy	2.cc\	-li-
4A\	-gi-	.	.	4cc\	-gi-
!LO:TX:t=P:problem:kreska pseudotaktowa	!	!	!	!	!
2F\	-tis	.	.	2a\	-tis
=28-	=28-	=28-	=28-	=28-	=28-
1G	e-	1.ryy	1.ryy	1.g	e-
!LO:TX:t=P:problem:kreska pseudotaktowa	!	!	!	!	!
2GG/	.	.	.	.	.
=29-	=29-	=29-	=29-	=29-	=29-
!LO:TX:t=P:problem:kreska pseudotaktowa	!	!	!	!	!
1.C	-am	1.ryy	1.ryy	1g	-am
.	.	.	.	2ee\	gau-
=30-	=30-	=30-	=30-	=30-	=30-
!LO:TX:t=P:problem:kreska pseudotaktowa	!	!	!	!	!
1.r	.	1.ryy	1.ryy	4dd\	-de-
.	.	.	.	4cc\	.
.	.	.	.	4dd\	.
.	.	.	.	4b\	.
.	.	.	.	4cc\	.
.	.	.	.	4dd\	.
=31-	=31-	=31-	=31-	=31-	=31-
2r	.	1.ryy	1.ryy	2ee\	.
2r	.	.	.	2ee\	-te
2G\	gau-	.	.	2cc\	gau-
!LO:LB:g=original	!	!	!	!	!
=32-	=32-	=32-	=32-	=32-	=32-
4F\	-de-	1.ryy	1.ryy	4a\	-de-
4E\	.	.	.	4g\	.
4F\	.	.	.	4a\	.
!	!	!	!	!LO:TX:a:t=P:problem:# above	!
4D\	.	.	.	4f#X\	.
4E\	.	.	.	4g\	.
!LO:TX:t=P:problem:kreska pseudotaktowa	!	!	!	!LO:SIC:v:t=custos b	!
4F\	.	.	.	4a\	.
!	!	!	!	!LO:PB:g=original	!
=33-	=33-	=33-	=33-	=33-	=33-
2.G\	.	1.ryy	1.ryy	2.b\	.
4G\	-te	.	.	4b\	-te
4F#X\	cu(m)	.	.	4a\	cu(m)
!LO:TX:t=P:problem:kreska pseudotaktowa	!	!	!	!	!
4F#\	lae-	.	.	4a\	lae-
=34-	=34-	=34-	=34-	=34-	=34-
2.E\	-ti-	1.ryy	1.ryy	2.g/	-ti-
4E\	-ti-	.	.	4e/	-ti-
!LO:TX:t=P:problem:kreska pseudotaktowa	!	!	!	!LO:TX:t=P:problem:kreska pseudotaktowa	!
2D/	-a	.	.	2a\	-a
=35-	=35-	=35-	=35-	=35-	=35-
!	!	!	!	!LO:TX:a:i:t=Lente	!
2BB/	qui	1.ryy	1.ryy	2b\	qui
2BB/	in	.	.	2b\	in
!LO:TX:t=P:problem:kreska pseudotaktowa	!	!	!	!	!
2BB/	tri-	.	.	2b\	tri-
=36-	=36-	=36-	=36-	=36-	=36-
2.C/	-ſti-	1.ryy	1.ryy	2.g/	-ſti-
4C/	-ti-	.	.	4e/	-ti-
!LO:TX:t=P:problem:kreska pseudotaktowa	!	!	!	!	!
2AA/	-a	.	.	2ee\	-a
=37-	=37-	=37-	=37-	=37-	=37-
2AA/	fu-	1.ryy	1.ryy	2ee\	fu-
1BB	-i-	.	.	2ee\	-i-
.	.	.	.	2dd#X\	-stis
=38-	=38-	=38-	=38-	=38-	=38-
!LO:TX:t=P:problem:kreska pseudotaktowa	!	!	!	!	!
1.E	-stis	1.ryy	1.ryy	1.ee	.
=39-	=39-	=39-	=39-	=39-	=39-
!LO:TX:t=P:problem:kreska pseudotaktowa	!	!	!	!	!
00.r	.	1.ryy	1.ryy	0.r	.
=40-	=40-	=40-	=40-	=40-	=40-
.	.	1.ryy	1.ryy	.	.
=41-	=41-	=41-	=41-	=41-	=41-
.	.	1.ryy	1.ryy	1.r	.
=42-	=42-	=42-	=42-	=42-	=42-
.	.	1.ryy	1.ryy	2g/	ut
.	.	.	.	2b\	e-
.	.	.	.	2cc\	-xul-
=43-	=43-	=43-	=43-	=43-	=43-
2D/	Ut	1.ryy	1.ryy	2dd\ny	-te-
!LO:TX:a:t=P:problem:# above	!	!	!	!	!
2F#X\	e-	.	.	2a\	-tis
2G\	-xul-	.	.	2b\	et
!LO:LB:g=original	!	!	!	!LO:LB:g=original	!
=44-	=44-	=44-	=44-	=44-	=44-
2A\	-te-	1.ryy	1.ryy	1cc	ſa-
2E\	-tis	.	.	.	.
!LO:TX:t=P:problem:kreska pseudotaktowa	!	!	!	!	!
2F#X\	et	.	.	2cc\	-ti-
=45-	=45-	=45-	=45-	=45-	=45-
1G	ſa-	1.ryy	1.ryy	2.b\	-e-
.	.	.	.	4b\	-mi-
!LO:TX:t=P:problem:kreska pseudotaktowa	!	!	!	!	!
2G\	-ti-	.	.	2b\	-ni
=46-	=46-	=46-	=46-	=46-	=46-
2.F#X\	-e-	1.ryy	1.ryy	1a	ab
4F#\	-mi-	.	.	.	.
!LO:TX:t=P:problem:kreska pseudotaktowa	!	!	!	!	!
2F#\	-ni	.	.	2a\	u-
=47-	=47-	=47-	=47-	=47-	=47-
1E	ab	1.ryy	1.ryy	2.g/	-be-
.	.	.	.	4g/	-ri-
!LO:TX:t=P:problem:kreska pseudotaktowa	!	!	!	!	!
2E\	u-	.	.	2g/	-b(us)
=48-	=48-	=48-	=48-	=48-	=48-
2.D/	-be-	1.ryy	1.ryy	2.dd\	con-
4D\	-ri-	.	.	4dd\	-ſo-
!LO:TX:t=P:problem:kreska pseudotaktowa	!	!	!	!	!
2D/	-b(us)	.	.	4dd\	-la-
.	.	.	.	4dd\	-ti-
=49-	=49-	=49-	=49-	=49-	=49-
2.A\	Con-	1.ryy	1.ryy	1ee	-o-
4A\	-ſo-	.	.	.	.
4A\	-la-	.	.	2a\	-nis
!LO:TX:t=P:problem:kreska pseudotaktowa	!	!	!	!	!
4A\	-ti-	.	.	.	.
=50-	=50-	=50-	=50-	=50-	=50-
2B\ny	-o-	1.ryy	1.ryy	1dd	ve-
2E\	-nis	.	.	.	.
!LO:TX:t=P:problem:kreska pseudotaktowa	!	!	!	!LO:TX:a:t=P:problem:# above	!
2A\	ve-	.	.	2cc#X\	-ſtrae
=51-	=51-	=51-	=51-	=51-	=51-
2D,</	-ſtrae	1.ryy	1.ryy	2dd\	con-
2D/	con-	.	.	2dd\	-ſo-
!LO:TX:t=P:problem:kreska pseudotaktowa	!	!	!	!	!
2D/	-ſo-	.	.	2dd\	-la-
=52-	=52-	=52-	=52-	=52-	=52-
1BB	-la-	1.ryy	1.ryy	1dd	-ti-
!LO:TX:t=P:problem:kreska pseudotaktowa	!	!	!	!	!
2BB/	-ti-	.	.	2dd\	-o-
=53-	=53-	=53-	=53-	=53-	=53-
1C	-o-	1.ryy	1.ryy	1ee	-nis
1GG/	-nis	.	.	1dd\	ve-
=54-	=54-	=54-	=54-	=54-	=54-
.	.	1.ryy	1.ryy	.	.
1D	ve-	.	.	1dd	-ſtrae.
=55-	=55-	=55-	=55-	=55-	=55-
!LO:N:vis=0	!	!	!	!	!
1.GG	-ſtrae	1.ryy	1.ryy	1.dd;;	.
=-	=-	=-	=-	=-	=-
*-	*-	*-	*-	*-	*-
!!!system-decoration: s1,s2,s3,s4
!!!RDF**kern: > = above
!!!RDF**kern: < = below
!!!EED: Antoni Szymański
!!!EST: 2021-07-18
!!!ENC: Andrzej Gręziak
!!!END: 2021-07-01
